lib/logo_tmp/nrk-logo-nrk-p1-pluss-with-bg.svg

<svg width="74" height="24" viewBox="0 0 74 24" fill="none" xmlns="http://www.w3.org/2000/svg">
<rect y="-3.05176e-05" width="74" height="24" fill="#015F88"/>
<path d="M6.00427 18V6.00106H9.94146V18H6.00427ZM15.2981 7.91075L17.5623 18H13.2534L10.5498 6.00106H12.9664C13.5206 5.99387 14.0583 6.18922 14.4788 6.55036C14.8999 6.89635 15.1892 7.37667 15.2981 7.91075ZM18.1538 18V6.00106H22.091V18H18.1538ZM25.0647 10.5641C24.6405 10.5682 24.223 10.4572 23.8568 10.2429C23.4955 10.0341 23.1954 9.73393 22.9865 9.37257C22.7721 9.0063 22.661 8.58873 22.6652 8.16429C22.6604 7.74243 22.7715 7.32735 22.9865 6.9644C23.1976 6.60696 23.4974 6.31006 23.8568 6.10249C24.2231 5.88847 24.6405 5.77748 25.0647 5.78135C25.4865 5.77681 25.9014 5.8879 26.2645 6.10249C26.6203 6.31188 26.9169 6.60853 27.1263 6.9644C27.3411 7.32745 27.4522 7.74246 27.4476 8.16429C27.4515 8.5887 27.3405 9.0062 27.1263 9.37257C26.9191 9.73234 26.6222 10.0322 26.2645 10.2429C25.9014 10.4579 25.4862 10.5691 25.0642 10.5641H25.0647ZM28.0559 18V6.00106H31.9934V18H28.0559ZM36.978 12.5582C36.9891 12.5698 37.0735 12.7079 37.2314 12.9722C37.3893 13.2366 37.5949 13.5747 37.8482 13.9863C38.1017 14.3977 38.3692 14.8342 38.6506 15.296C38.932 15.7577 39.1969 16.1943 39.4451 16.6057C39.6924 17.0172 39.974 17.4819 40.29 18H35.9641C35.6936 17.5606 35.4484 17.1634 35.2288 16.8085C35.0091 16.4536 34.7756 16.0706 34.5281 15.6593C34.2801 15.2485 34.0349 14.8485 33.7925 14.4594C33.5501 14.0704 33.3418 13.7296 33.1675 13.437C32.9926 13.1443 32.8714 12.9471 32.8039 12.8455C32.6368 12.5934 32.5379 12.3023 32.517 12.0005C32.5337 11.7109 32.6269 11.4309 32.787 11.1891C32.8546 11.0764 32.9786 10.8764 33.1588 10.5891C33.3391 10.3018 33.5503 9.96102 33.7925 9.56669C34.0347 9.17236 34.2799 8.76957 34.5281 8.35834C34.7763 7.94711 35.0098 7.56121 35.2288 7.20068C35.4488 6.84052 35.6939 6.44056 35.9641 6.00078H40.29L36.9439 11.4595C36.8404 11.6215 36.782 11.8083 36.7749 12.0005C36.786 12.2023 36.8565 12.3963 36.9774 12.5582H36.978Z" fill="white"/>
<path d="M53.1348 7.55511C52.9273 7.23463 52.661 6.95652 52.35 6.7355C52.0033 6.4924 51.6181 6.30956 51.2108 6.19469C50.7162 6.058 50.2048 5.99266 49.6919 6.00064H45V17.9995H46.7721V13.69H49.8269C50.5163 13.7006 51.1968 13.5317 51.8015 13.1999C52.381 12.8786 52.8623 12.4054 53.1938 11.831C53.5491 11.1973 53.727 10.4792 53.7086 9.75264C53.7101 9.35986 53.6647 8.96831 53.5736 8.58628C53.4858 8.22044 53.3375 7.87189 53.1348 7.55511ZM51.5652 11.197C51.3383 11.5534 51.0045 11.8286 50.6117 11.9831C50.1348 12.1637 49.6274 12.2497 49.1177 12.2366H46.7721V7.47091H49.3543C49.8476 7.45217 50.3384 7.54759 50.7888 7.74975C51.1471 7.92322 51.4401 8.20767 51.6242 8.56094C51.8193 8.95725 51.9149 9.39522 51.9027 9.83688C51.922 10.3132 51.8049 10.7852 51.5652 11.197Z" fill="#85E6D6"/>
<path d="M57.3115 6.39774C57.0696 6.5273 56.8334 6.64834 56.6029 6.76082C56.3725 6.87329 56.139 6.98594 55.9025 7.0988C55.6662 7.21146 55.4244 7.31316 55.1769 7.40302C54.9293 7.49287 54.6646 7.58355 54.3834 7.6734L54.7549 9.10987C55.0925 9.00847 55.399 8.90709 55.6745 8.80569C55.9445 8.70688 56.2093 8.59404 56.4676 8.46767C56.7212 8.34412 56.9743 8.20902 57.2271 8.06237L57.2355 8.05732V18H58.9905V6.00117H58.0794C57.8092 6.1358 57.5532 6.26798 57.3115 6.39774Z" fill="#85E6D6"/>
<path d="M65.8597 11.3407V7.9272H64.3745V11.3407H60.9485V12.6757H64.3745V16.0729H65.8597V12.6757H69.2857V11.3407H65.8597Z" fill="#85E6D6"/>
</svg>

<svg xmlns="http://www.w3.org/2000/svg" viewBox="0 0 74 24"><path fill="#015F88" d="M0 0h74v24H0z"/><path fill="#fff" d="M6.004 18V6.001h3.937V18H6.004Zm9.294-10.09L17.562 18h-4.309L10.55 6.001h2.416a2.276 2.276 0 0 1 1.513.55c.42.345.71.826.82 1.36ZM18.154 18V6.001h3.937V18h-3.937Zm6.91-7.436a2.382 2.382 0 0 1-2.4-2.4 2.303 2.303 0 0 1 .323-1.2 2.411 2.411 0 0 1 3.278-.862c.355.21.652.507.861.862.215.363.326.778.322 1.2a2.4 2.4 0 0 1-1.183 2.079 2.302 2.302 0 0 1-1.2.321ZM28.057 18V6.001h3.937V18h-3.937Zm8.922-5.442c.011.012.096.15.253.414.158.265.364.603.617 1.014a309.436 309.436 0 0 1 1.597 2.62c.247.411.529.876.845 1.394h-4.326c-.27-.44-.516-.837-.735-1.192-.22-.354-.453-.737-.7-1.149-.249-.41-.494-.81-.737-1.2-.242-.389-.45-.73-.625-1.022-.174-.293-.296-.49-.363-.591a1.748 1.748 0 0 1-.287-.845c.017-.29.11-.57.27-.812.068-.113.192-.313.372-.6s.391-.628.633-1.022c.243-.395.488-.797.736-1.209l.7-1.157.736-1.2h4.326l-3.346 5.458a1.079 1.079 0 0 0-.17.542c.012.201.082.395.203.557h.001Z"/><path fill="#85E6D6" d="M53.135 7.555a3.017 3.017 0 0 0-.785-.82 3.764 3.764 0 0 0-1.14-.54A5.387 5.387 0 0 0 49.693 6H45v11.998h1.772V13.69h3.055c.69.01 1.37-.158 1.974-.49a3.653 3.653 0 0 0 1.393-1.369 4.04 4.04 0 0 0 .515-2.078 4.947 4.947 0 0 0-.135-1.167 3.374 3.374 0 0 0-.44-1.03Zm-1.57 3.642c-.227.356-.56.632-.953.786-.477.18-.985.267-1.494.254h-2.346V7.47h2.582c.494-.019.984.077 1.435.279.358.173.651.458.835.81.195.397.29.835.279 1.277.019.476-.098.948-.338 1.36ZM57.312 6.398c-.242.13-.479.25-.71.363-.23.112-.463.225-.7.338a8.142 8.142 0 0 1-.725.304 21.6 21.6 0 0 1-.794.27l.372 1.437c.337-.102.644-.203.92-.304a8.28 8.28 0 0 0 .793-.338c.253-.124.506-.259.76-.406l.008-.005V18h1.755V6.001h-.912c-.27.135-.526.267-.767.397ZM65.86 11.34V7.928h-1.486v3.414H60.95v1.335h3.425v3.397h1.486v-3.397h3.426V11.34H65.86Z"/></svg>
